X:17
T:Hiland Ladie
Z:Jack Campin - http://www.campin.me.uk
S:Blaikie MS (NLS MS.1578) p7, Blaikie #16
M:2/4
L:1/8
V:1 midi program 1 74
V:2 midi program 1 46 bass middle = d transpose -24
Q:1/4=100
K:F
[V:1] dd```````dc      |f2 A2 |GG`GA |GG`GA |
[V:2] F2       f2      |F2 f2 |c2 c'2|c2 c'2|
%
[V:1] cc```````cA      |c2 A2 |FF`FA |FF`FA||
[V:2] a2       f2      |a2 f2 |F2 f2 |F2 f2||
%
[V:1] d/c/d/e/ f/e/d/c/|f2 A2 |GG`GA |GG`GA |
[V:2] F2       f2      |af`c'f|c2 c'2|c2 c'2|
%
[V:1] c/A/c/d/ c/A/c/d/|c2 A2 |FF`FA |FF`FA|]
[V:2] F2       f2      |af`c'f|F2 f2 |F2 f2|]
W:Transcription (c) Jack Campin 2009, no mirroring or republication without permission

